replication/atom_indices/EAS_68_atomIndicesCap.svg

<?xml version="1.0" encoding="UTF-8"?>
<svg baseProfile="full" version="1.1" viewBox="0 0 800 200" xml:space="preserve" xmlns="http://www.w3.org/2000/svg">

 <!-- END OF HEADER -->
<rect width="800" height="200" fill="#fff"> </rect>
<path class="bond-0" d="m142.15 137.78-9.253-4.372" fill="none" stroke="#000" stroke-width="2px"/>
<path class="bond-0" d="m132.89 133.41-9.253-4.373" fill="none" stroke="#00f" stroke-width="2px"/>
<path class="bond-0" d="m142.04 130.82-6.478-3.061" fill="none" stroke="#000" stroke-width="2px"/>
<path class="bond-0" d="m135.56 127.76-6.477-3.06" fill="none" stroke="#00f" stroke-width="2px"/>
<path class="bond-1" d="m142.15 137.78 9.076-6.287" fill="none" stroke="#000" stroke-width="2px"/>
<path class="bond-1" d="m151.22 131.49 9.076-6.286" fill="none" stroke="#00f" stroke-width="2px"/>
<path class="bond-2" d="m142.15 137.78 1.046 12.694" fill="none" stroke="#000" stroke-width="2px"/>
<path class="bond-2" d="m143.19 150.48 1.046 12.695" fill="none" stroke="#00f" stroke-width="2px"/>
<path class="bond-3" d="m167.38 114.8-0.853-10.353" fill="none" stroke="#00f" stroke-width="2px"/>
<path class="bond-3" d="m166.53 104.45-0.853-10.353" fill="none" stroke="#000" stroke-width="2px"/>
<path class="bond-3" d="m160.9 112.21-0.597-7.247" fill="none" stroke="#00f" stroke-width="2px"/>
<path class="bond-3" d="m160.3 104.96-0.597-7.2478" fill="none" stroke="#000" stroke-width="2px"/>
<path class="bond-4" d="m155.53 84.3-8.787-4.1523" fill="none" stroke="#000" stroke-width="2px"/>
<path class="bond-5" d="m172.76 83.69 10.64-7.3697" fill="none" stroke="#000" stroke-width="2px"/>
<path class="bond-6" d="m136.59 70.353-1.705-20.706" fill="none" stroke="#000" stroke-width="2px"/>
<path class="bond-7" d="m129.51 80.759-10.639 7.3697" fill="none" stroke="#000" stroke-width="2px"/>
<path class="bond-7" d="m131.47 86.997-7.447 5.1588" fill="none" stroke="#000" stroke-width="2px"/>
<path class="bond-8" d="m111.79 98.535 0.852 10.353" fill="none" stroke="#000" stroke-width="2px"/>
<path class="bond-8" d="m112.64 108.89 0.853 10.353" fill="none" stroke="#00f" stroke-width="2px"/>
<path class="bond-9" d="m101.64 88.739-4.3938-2.0762" fill="none" stroke="#000" stroke-width="2px"/>
<path class="bond-9" d="m97.245 86.663-4.3939-2.0761" fill="none" stroke="#00f" stroke-width="2px"/>
<path class="bond-10" d="m82.704 74.792-0.8528-10.353" fill="none" stroke="#00f" stroke-width="2px"/>
<path class="bond-10" d="m81.851 64.439-0.8529-10.353" fill="none" stroke="#000" stroke-width="2px"/>
<path class="bond-11" d="m75.621 85.198-5.3198 3.6848" fill="none" stroke="#00f" stroke-width="2px"/>
<path class="bond-11" d="m70.301 88.883-5.3199 3.6849" fill="none" stroke="#000" stroke-width="2px"/>
<path class="bond-12" d="m72.184 41.468-4.219-1.9935" fill="none" stroke="#000" stroke-width="2px"/>
<path class="bond-12" d="m67.966 39.474-4.2191-1.9935" fill="none" stroke="#f00" stroke-width="2px"/>
<path class="bond-12" d="m69.517 47.113-4.219-1.9935" fill="none" stroke="#000" stroke-width="2px"/>
<path class="bond-12" d="m65.298 45.119-4.219-1.9935" fill="none" stroke="#f00" stroke-width="2px"/>
<path class="bond-13" d="m88.081 43.679 10.64-7.3697" fill="none" stroke="#000" stroke-width="2px"/>
<path class="bond-14" d="m115.95 35.699 7.496 3.5416" fill="none" stroke="#000" stroke-width="2px"/>
<path class="bond-14" d="m114.41 41.875 5.247 2.4791" fill="none" stroke="#000" stroke-width="2px"/>
<path class="bond-15" d="m44.278 93.153-3.0816-1.0786" fill="none" stroke="#000" stroke-width="2px"/>
<path class="bond-16" d="m57.352 102.97-0.4689 20.804" fill="none" stroke="#000" stroke-width="2px"/>
<path class="bond-17" d="m43.575 132.94-1.5833 0.476" fill="none" stroke="#000" stroke-width="2px"/>
<path class="bond-17" d="m41.991 133.42-1.5833 0.475" fill="none" stroke="#f00" stroke-width="2px"/>
<path class="bond-18" d="m23.263 132.75-5.284-7.629" fill="none" stroke="#f00" stroke-width="2px"/>
<path class="bond-18" d="m17.979 125.12-5.2839-7.628" fill="none" stroke="#000" stroke-width="2px"/>
<path class="bond-19" d="m13.053 107.09 10.989-14.43" fill="none" stroke="#000" stroke-width="2px"/>
<text x="158.09" y="125.208" fill="#0000FF" font-family="sans-serif" font-size="10px"><tspan>N:1</tspan></text>
<text x="155.527" y="94.0957" fill="#000000" font-family="sans-serif" font-size="10px"><tspan>C:2</tspan></text>
<text x="127.302" y="80.7589" fill="#000000" font-family="sans-serif" font-size="10px"><tspan>C:3</tspan></text>
<text x="101.639" y="98.5346" fill="#000000" font-family="sans-serif" font-size="10px"><tspan>C:4</tspan></text>
<text x="104.202" y="129.647" fill="#0000FF" font-family="sans-serif" font-size="10px"><tspan>N:5</tspan></text>
<text x="73.4136" y="85.1978" fill="#0000FF" font-family="sans-serif" font-size="10px"><tspan>N:6</tspan></text>
<text x="70.8508" y="54.0854" fill="#000000" font-family="sans-serif" font-size="10px"><tspan>C:7</tspan></text>
<text x="42.2755" y="40.7486" fill="#FF0000" font-family="sans-serif" font-size="10px"><tspan>O:8</tspan></text>
<text x="96.5136" y="36.3097" fill="#000000" font-family="sans-serif" font-size="10px"><tspan>C:9</tspan></text>
<text x="121.266" y="49.6465" fill="#000000" font-family="sans-serif" font-size="10px"><tspan>C:10</tspan></text>
<text x="44.278" y="102.973" fill="#000000" font-family="sans-serif" font-size="10px"><tspan>C:11</tspan></text>
<text x="43.5746" y="134.183" fill="#000000" font-family="sans-serif" font-size="10px"><tspan>C:12</tspan></text>
<text x="13.3251" y="143.159" fill="#FF0000" font-family="sans-serif" font-size="10px"><tspan>O:13</tspan></text>
<text x="-4.10077" y="117.496" fill="#000000" font-family="sans-serif" font-size="10px"><tspan>C:14</tspan></text>
<text x="14.813" y="92.6601" fill="#000000" font-family="sans-serif" font-size="10px"><tspan>C:15</tspan></text>
<text x="177.717" y="76.3201" fill="#000000" font-family="sans-serif" font-size="10px"><tspan>C:16</tspan></text>
<text x="125.271" y="174.617" fill="#0000FF" font-family="sans-serif" font-size="10px"><tspan>NH</tspan><tspan baseline-shift="sub" font-size="7.5px">2</tspan><tspan>:17</tspan></text>
<text x="70.3745" y="194" fill="#000000" font-family="sans-serif" font-size="12px"><tspan>comp409</tspan></text>
</svg>

<?xml version='1.0' encoding='iso-8859-1'?>
<svg version='1.1' baseProfile='full'
              xmlns='http://www.w3.org/2000/svg'
                      xmlns:rdkit='http://www.rdkit.org/xml'
                      xmlns:xlink='http://www.w3.org/1999/xlink'
                  xml:space='preserve'
width='800px' height='200px' viewBox='0 0 800 200'>
<!-- END OF HEADER -->
<rect style='opacity:1.0;fill:#FFFFFF;stroke:none' width='800' height='200' x='0' y='0'> </rect>
<path class='bond-0' d='M 142.146,137.781 L 132.893,133.409' style='fill:none;fill-rule:evenodd;stroke:#000000;stroke-width:2px;stroke-linecap:butt;stroke-linejoin:miter;stroke-opacity:1' />
<path class='bond-0' d='M 132.893,133.409 L 123.64,129.036' style='fill:none;fill-rule:evenodd;stroke:#0000FF;stroke-width:2px;stroke-linecap:butt;stroke-linejoin:miter;stroke-opacity:1' />
<path class='bond-0' d='M 142.038,130.824 L 135.56,127.763' style='fill:none;fill-rule:evenodd;stroke:#000000;stroke-width:2px;stroke-linecap:butt;stroke-linejoin:miter;stroke-opacity:1' />
<path class='bond-0' d='M 135.56,127.763 L 129.083,124.703' style='fill:none;fill-rule:evenodd;stroke:#0000FF;stroke-width:2px;stroke-linecap:butt;stroke-linejoin:miter;stroke-opacity:1' />
<path class='bond-1' d='M 142.146,137.781 L 151.222,131.494' style='fill:none;fill-rule:evenodd;stroke:#000000;stroke-width:2px;stroke-linecap:butt;stroke-linejoin:miter;stroke-opacity:1' />
<path class='bond-1' d='M 151.222,131.494 L 160.298,125.208' style='fill:none;fill-rule:evenodd;stroke:#0000FF;stroke-width:2px;stroke-linecap:butt;stroke-linejoin:miter;stroke-opacity:1' />
<path class='bond-2' d='M 142.146,137.781 L 143.192,150.475' style='fill:none;fill-rule:evenodd;stroke:#000000;stroke-width:2px;stroke-linecap:butt;stroke-linejoin:miter;stroke-opacity:1' />
<path class='bond-2' d='M 143.192,150.475 L 144.238,163.17' style='fill:none;fill-rule:evenodd;stroke:#0000FF;stroke-width:2px;stroke-linecap:butt;stroke-linejoin:miter;stroke-opacity:1' />
<path class='bond-3' d='M 167.381,114.802 L 166.528,104.449' style='fill:none;fill-rule:evenodd;stroke:#0000FF;stroke-width:2px;stroke-linecap:butt;stroke-linejoin:miter;stroke-opacity:1' />
<path class='bond-3' d='M 166.528,104.449 L 165.675,94.0957' style='fill:none;fill-rule:evenodd;stroke:#000000;stroke-width:2px;stroke-linecap:butt;stroke-linejoin:miter;stroke-opacity:1' />
<path class='bond-3' d='M 160.902,112.209 L 160.305,104.962' style='fill:none;fill-rule:evenodd;stroke:#0000FF;stroke-width:2px;stroke-linecap:butt;stroke-linejoin:miter;stroke-opacity:1' />
<path class='bond-3' d='M 160.305,104.962 L 159.708,97.7142' style='fill:none;fill-rule:evenodd;stroke:#000000;stroke-width:2px;stroke-linecap:butt;stroke-linejoin:miter;stroke-opacity:1' />
<path class='bond-4' d='M 155.527,84.3005 L 146.74,80.1482' style='fill:none;fill-rule:evenodd;stroke:#000000;stroke-width:2px;stroke-linecap:butt;stroke-linejoin:miter;stroke-opacity:1' />
<path class='bond-5' d='M 172.758,83.6898 L 183.398,76.3201' style='fill:none;fill-rule:evenodd;stroke:#000000;stroke-width:2px;stroke-linecap:butt;stroke-linejoin:miter;stroke-opacity:1' />
<path class='bond-6' d='M 136.592,70.353 L 134.887,49.6465' style='fill:none;fill-rule:evenodd;stroke:#000000;stroke-width:2px;stroke-linecap:butt;stroke-linejoin:miter;stroke-opacity:1' />
<path class='bond-7' d='M 129.509,80.7589 L 118.87,88.1286' style='fill:none;fill-rule:evenodd;stroke:#000000;stroke-width:2px;stroke-linecap:butt;stroke-linejoin:miter;stroke-opacity:1' />
<path class='bond-7' d='M 131.468,86.9969 L 124.021,92.1557' style='fill:none;fill-rule:evenodd;stroke:#000000;stroke-width:2px;stroke-linecap:butt;stroke-linejoin:miter;stroke-opacity:1' />
<path class='bond-8' d='M 111.787,98.5346 L 112.639,108.888' style='fill:none;fill-rule:evenodd;stroke:#000000;stroke-width:2px;stroke-linecap:butt;stroke-linejoin:miter;stroke-opacity:1' />
<path class='bond-8' d='M 112.639,108.888 L 113.492,119.241' style='fill:none;fill-rule:evenodd;stroke:#0000FF;stroke-width:2px;stroke-linecap:butt;stroke-linejoin:miter;stroke-opacity:1' />
<path class='bond-9' d='M 101.639,88.7394 L 97.2452,86.6632' style='fill:none;fill-rule:evenodd;stroke:#000000;stroke-width:2px;stroke-linecap:butt;stroke-linejoin:miter;stroke-opacity:1' />
<path class='bond-9' d='M 97.2452,86.6632 L 92.8513,84.5871' style='fill:none;fill-rule:evenodd;stroke:#0000FF;stroke-width:2px;stroke-linecap:butt;stroke-linejoin:miter;stroke-opacity:1' />
<path class='bond-10' d='M 82.7039,74.7919 L 81.8511,64.4386' style='fill:none;fill-rule:evenodd;stroke:#0000FF;stroke-width:2px;stroke-linecap:butt;stroke-linejoin:miter;stroke-opacity:1' />
<path class='bond-10' d='M 81.8511,64.4386 L 80.9982,54.0854' style='fill:none;fill-rule:evenodd;stroke:#000000;stroke-width:2px;stroke-linecap:butt;stroke-linejoin:miter;stroke-opacity:1' />
<path class='bond-11' d='M 75.6209,85.1978 L 70.3011,88.8826' style='fill:none;fill-rule:evenodd;stroke:#0000FF;stroke-width:2px;stroke-linecap:butt;stroke-linejoin:miter;stroke-opacity:1' />
<path class='bond-11' d='M 70.3011,88.8826 L 64.9812,92.5675' style='fill:none;fill-rule:evenodd;stroke:#000000;stroke-width:2px;stroke-linecap:butt;stroke-linejoin:miter;stroke-opacity:1' />
<path class='bond-12' d='M 72.1845,41.4676 L 67.9655,39.4741' style='fill:none;fill-rule:evenodd;stroke:#000000;stroke-width:2px;stroke-linecap:butt;stroke-linejoin:miter;stroke-opacity:1' />
<path class='bond-12' d='M 67.9655,39.4741 L 63.7464,37.4806' style='fill:none;fill-rule:evenodd;stroke:#FF0000;stroke-width:2px;stroke-linecap:butt;stroke-linejoin:miter;stroke-opacity:1' />
<path class='bond-12' d='M 69.5171,47.1127 L 65.2981,45.1192' style='fill:none;fill-rule:evenodd;stroke:#000000;stroke-width:2px;stroke-linecap:butt;stroke-linejoin:miter;stroke-opacity:1' />
<path class='bond-12' d='M 65.2981,45.1192 L 61.0791,43.1257' style='fill:none;fill-rule:evenodd;stroke:#FF0000;stroke-width:2px;stroke-linecap:butt;stroke-linejoin:miter;stroke-opacity:1' />
<path class='bond-13' d='M 88.0812,43.6794 L 98.7209,36.3097' style='fill:none;fill-rule:evenodd;stroke:#000000;stroke-width:2px;stroke-linecap:butt;stroke-linejoin:miter;stroke-opacity:1' />
<path class='bond-14' d='M 115.951,35.699 L 123.447,39.2406' style='fill:none;fill-rule:evenodd;stroke:#000000;stroke-width:2px;stroke-linecap:butt;stroke-linejoin:miter;stroke-opacity:1' />
<path class='bond-14' d='M 114.408,41.8753 L 119.655,44.3544' style='fill:none;fill-rule:evenodd;stroke:#000000;stroke-width:2px;stroke-linecap:butt;stroke-linejoin:miter;stroke-opacity:1' />
<path class='bond-15' d='M 44.278,93.1531 L 41.1964,92.0745' style='fill:none;fill-rule:evenodd;stroke:#000000;stroke-width:2px;stroke-linecap:butt;stroke-linejoin:miter;stroke-opacity:1' />
<path class='bond-16' d='M 57.3524,102.973 L 56.8835,123.777' style='fill:none;fill-rule:evenodd;stroke:#000000;stroke-width:2px;stroke-linecap:butt;stroke-linejoin:miter;stroke-opacity:1' />
<path class='bond-17' d='M 43.5746,132.94 L 41.9913,133.416' style='fill:none;fill-rule:evenodd;stroke:#000000;stroke-width:2px;stroke-linecap:butt;stroke-linejoin:miter;stroke-opacity:1' />
<path class='bond-17' d='M 41.9913,133.416 L 40.408,133.891' style='fill:none;fill-rule:evenodd;stroke:#FF0000;stroke-width:2px;stroke-linecap:butt;stroke-linejoin:miter;stroke-opacity:1' />
<path class='bond-18' d='M 23.2627,132.753 L 17.9787,125.124' style='fill:none;fill-rule:evenodd;stroke:#FF0000;stroke-width:2px;stroke-linecap:butt;stroke-linejoin:miter;stroke-opacity:1' />
<path class='bond-18' d='M 17.9787,125.124 L 12.6948,117.496' style='fill:none;fill-rule:evenodd;stroke:#000000;stroke-width:2px;stroke-linecap:butt;stroke-linejoin:miter;stroke-opacity:1' />
<path class='bond-19' d='M 13.0532,107.09 L 24.0424,92.6601' style='fill:none;fill-rule:evenodd;stroke:#000000;stroke-width:2px;stroke-linecap:butt;stroke-linejoin:miter;stroke-opacity:1' />
<text x='158.09' y='125.208' style='font-size:10px;font-style:normal;font-weight:normal;fill-opacity:1;stroke:none;font-family:sans-serif;text-anchor:start;fill:#0000FF' ><tspan>N:1</tspan></text>
<text x='155.527' y='94.0957' style='font-size:10px;font-style:normal;font-weight:normal;fill-opacity:1;stroke:none;font-family:sans-serif;text-anchor:start;fill:#000000' ><tspan>C:2</tspan></text>
<text x='127.302' y='80.7589' style='font-size:10px;font-style:normal;font-weight:normal;fill-opacity:1;stroke:none;font-family:sans-serif;text-anchor:start;fill:#000000' ><tspan>C:3</tspan></text>
<text x='101.639' y='98.5346' style='font-size:10px;font-style:normal;font-weight:normal;fill-opacity:1;stroke:none;font-family:sans-serif;text-anchor:start;fill:#000000' ><tspan>C:4</tspan></text>
<text x='104.202' y='129.647' style='font-size:10px;font-style:normal;font-weight:normal;fill-opacity:1;stroke:none;font-family:sans-serif;text-anchor:start;fill:#0000FF' ><tspan>N:5</tspan></text>
<text x='73.4136' y='85.1978' style='font-size:10px;font-style:normal;font-weight:normal;fill-opacity:1;stroke:none;font-family:sans-serif;text-anchor:start;fill:#0000FF' ><tspan>N:6</tspan></text>
<text x='70.8508' y='54.0854' style='font-size:10px;font-style:normal;font-weight:normal;fill-opacity:1;stroke:none;font-family:sans-serif;text-anchor:start;fill:#000000' ><tspan>C:7</tspan></text>
<text x='42.2755' y='40.7486' style='font-size:10px;font-style:normal;font-weight:normal;fill-opacity:1;stroke:none;font-family:sans-serif;text-anchor:start;fill:#FF0000' ><tspan>O:8</tspan></text>
<text x='96.5136' y='36.3097' style='font-size:10px;font-style:normal;font-weight:normal;fill-opacity:1;stroke:none;font-family:sans-serif;text-anchor:start;fill:#000000' ><tspan>C:9</tspan></text>
<text x='121.266' y='49.6465' style='font-size:10px;font-style:normal;font-weight:normal;fill-opacity:1;stroke:none;font-family:sans-serif;text-anchor:start;fill:#000000' ><tspan>C:10</tspan></text>
<text x='44.278' y='102.973' style='font-size:10px;font-style:normal;font-weight:normal;fill-opacity:1;stroke:none;font-family:sans-serif;text-anchor:start;fill:#000000' ><tspan>C:11</tspan></text>
<text x='43.5746' y='134.183' style='font-size:10px;font-style:normal;font-weight:normal;fill-opacity:1;stroke:none;font-family:sans-serif;text-anchor:start;fill:#000000' ><tspan>C:12</tspan></text>
<text x='13.3251' y='143.159' style='font-size:10px;font-style:normal;font-weight:normal;fill-opacity:1;stroke:none;font-family:sans-serif;text-anchor:start;fill:#FF0000' ><tspan>O:13</tspan></text>
<text x='-4.10077' y='117.496' style='font-size:10px;font-style:normal;font-weight:normal;fill-opacity:1;stroke:none;font-family:sans-serif;text-anchor:start;fill:#000000' ><tspan>C:14</tspan></text>
<text x='14.813' y='92.6601' style='font-size:10px;font-style:normal;font-weight:normal;fill-opacity:1;stroke:none;font-family:sans-serif;text-anchor:start;fill:#000000' ><tspan>C:15</tspan></text>
<text x='177.717' y='76.3201' style='font-size:10px;font-style:normal;font-weight:normal;fill-opacity:1;stroke:none;font-family:sans-serif;text-anchor:start;fill:#000000' ><tspan>C:16</tspan></text>
<text x='125.271' y='174.617' style='font-size:10px;font-style:normal;font-weight:normal;fill-opacity:1;stroke:none;font-family:sans-serif;text-anchor:start;fill:#0000FF' ><tspan>NH</tspan><tspan style='baseline-shift:sub;font-size:7.5px;'>2</tspan><tspan>:17</tspan></text>
<text x='70.3745' y='194' style='font-size:12px;font-style:normal;font-weight:normal;fill-opacity:1;stroke:none;font-family:sans-serif;text-anchor:start;fill:#000000' ><tspan>comp409</tspan></text>
</svg>
